!!!OTL: BLAKOHL SEIN DIE BESTEN PFLANZEN
!!!ARE: Europa, Mitteleuropa, Deutschland, Ruhla
!!!SCT: E1241
!!!YEM: Copyright 1995, estate of Helmut Schaffrath.
**kern
*ICvox
*Ivox
*M2/4
*k[]
*C:
=1
{4c
4G
=2
4c
4G}
=3
{8c
8B
8c
8d
=4
4e
8d
8r}
=5
{8e
8d
8c
8B
=6
8A
8B
4c}
=7
{8d
8c
8B
8A
=8
4A
8G
8r}
=9
{4d
8B
8A
=10
4G
4r}
=11
{8d
8c
8B
8A
=12
4G
4r}
=13
{8d
8d
8d
8d
=14
4e
8d}
{8d
=15
8d
8d
8d
8d
=16
4e
4d}
=17
{4c
4G
=18
4c
4G}
=19
{8c
8B
8c
8d
=20
4e
8d
8r}
=21
{8e
8d
8c
8B
=22
8A
8B
4c}
=23
{8d
8c
8B
8A
=24
4A
8G
8r}
==
!!!AGN: Ansinge -, Brauchtums - Lied, Kirchen - Fest, Sommer - Tags - Lied
!!!ONB: ESAC (Essen Associative Code) Database: ERK3
!!!AMT: simple duple
!!!AIN: vox
!!!EED: Helmut Schaffrath
!!!EEV: 1.0
*-
